!!!SOCIAL_FUNCTION:	songs of the sun dance
!!!PDT:	1918

Specific Region: Dakotas, Minnesota, Montana, Nebraska
!!!REG: Dakotas and Montana
!!!LING_GROUP: Siouan
!!!LANG: Tone
!!!OTL@ENG: Song Sung after Raising the Sacred Pole (c)
!!!ONM: No. 16
**kern
*Imale
*clefF4
*k[f#c#g#d#]
*M3/4
*>[A,A]
*>norep[A]
*>A
=!|:
*MM76
8g#
8g#
8g#
=1
4..g#
16g#
8f#
8f#
=2
2e
16c#
8.c#
=3||
*M2/4
4c#
[4c#
=4
8c#]
8f#
8f#
8f#
=5
[2f#
=6||
*M3/4
4..f#]
16e
8e
8e
=7
2e
16c#
8.c#
=8||
*M2/4
4c#
[4c#
=9
4c#]
12c#
12c#
12c#
=10||
*M3/4
4..c#
16c#
8c#
8c#
=11
2c#
16G#
8.G#
=12||
*M2/4
4G#
[4G#
=13
8G#]
8c#
8c#
8c#
=14||
*M3/4
4..c#
16c#
8c#
8c#
=15
2c#
16c#
8.c#
=16
4c#
2c#
=17||
*M2/4
8f#
8f#
8f#
8f#
=18
8.f#
16e
4e
=19||
*M3/4
4..c#
16c#
8c#
8c#
=20
2c#
16G#
8.G#
=21||
*M2/4
4G#
[4G#
=22
8G#]
8c#
8c#
8c#
=23||
*M3/4
4..c#
16c#
8c#
8c#
=24
2c#
16c#
8.c#
=25
4.c#
4.c#
==:|!
*-
!!!CNT: Native American -- Sioux
!!!MRD: 1911/07//-1914///
!!!OCL: Frances Densmore
!!!YOR1: Teton Sioux Music, Bulletin 61,
!!!YOR2: Bureau of American Ethnology, Smithsonian Institution
!!!PPR: Government Printing Office
!!!PPP: Washington, D.C.
!!!PDT: 1918///
!!!ENC: Craig Stuart Sapp
!!!END: 2002/03/25/
!!!EEV: 2002/03/31/
!!!AGN: Ceremonial Song/Song of the Sun Dance
!!!MPN@@SIO: Itung'kasang-lu'ta
!!!MPN@ENG: Red Weasel
!!!TXO: Teton Sioux
!!!MLC: Standing Rock Reservation, South Dakota, United States of America
!!!ARL: 45.9/-100.7#
!!!catalog: Catalogue No. 630
!!!PPG: 121
!!!EFL: 16/245
!!!VTS: 3616799894
